mobile/20/svg/bookmark-20.svg

<svg width="20" height="20" viewBox="0 0 20 20" fill="none" xmlns="http://www.w3.org/2000/svg">
<path fill-rule="evenodd" clip-rule="evenodd" d="M10.2084 4.08459C10.0883 3.94556 9.8549 3.98412 9.78806 4.15425L9.78691 4.15719L8.3869 7.67718C8.27975 7.94661 8.02689 8.13013 7.73752 8.1485L3.95989 8.38834C3.95962 8.38836 3.96016 8.38833 3.95989 8.38834C3.73484 8.40401 3.64238 8.68655 3.81851 8.83249L3.81955 8.83335L6.72955 11.2534C6.95227 11.4386 7.04842 11.7355 6.97655 12.0161L6.03511 15.6917C6.01882 15.7533 6.02565 15.7976 6.0391 15.8321C6.05429 15.871 6.08418 15.9116 6.12885 15.944C6.21757 16.0083 6.31718 16.0142 6.4095 15.9559L9.60965 13.9358C9.85423 13.7814 10.1658 13.7814 10.4103 13.9358L13.6164 15.9596C13.7876 16.07 14.0414 15.9227 13.9827 15.6833C13.9826 15.6829 13.9825 15.6824 13.9824 15.6819L13.0435 12.0161C12.9716 11.7355 13.0677 11.4386 13.2904 11.2534L16.2015 8.83249C16.3776 8.68655 16.286 8.40407 16.0609 8.3884C16.0607 8.38838 16.0612 8.38842 16.0609 8.3884L12.2825 8.1485C11.9931 8.13013 11.7403 7.94661 11.6331 7.67718L10.2331 4.15718C10.2236 4.13328 10.2154 4.10905 10.2084 4.08459ZM11.691 3.76392C11.6822 3.70785 11.667 3.65238 11.6452 3.59861C11.0563 2.14371 8.9763 2.12204 8.39255 3.6042C8.39235 3.60472 8.39214 3.60524 8.39194 3.60577L7.16859 6.6816L3.86248 6.89151L3.86011 6.89167C2.28603 6.99661 1.63806 8.97295 2.86084 9.98699C2.86063 9.98681 2.86106 9.98717 2.86084 9.98699L5.40577 12.1034L4.58408 15.3115C4.17899 16.8542 5.88882 18.0589 7.21049 17.2241L10.01 15.4569L12.8069 17.2225C14.1549 18.0877 15.8172 16.8367 15.4376 15.3181L14.6142 12.1034L17.1585 9.98752C17.1583 9.98766 17.1587 9.98738 17.1585 9.98752C18.3815 8.97351 17.734 6.99661 16.1599 6.89166L12.8514 6.6816L11.691 3.76392Z" fill="black"/>
</svg>

<svg width="20" height="20" fill="none" xmlns="http://www.w3.org/2000/svg"><path fill-rule="evenodd" clip-rule="evenodd" d="M10.208 4.085a.252.252 0 0 0-.42.07l-.001.002-1.4 3.52a.75.75 0 0 1-.65.472l-3.777.24a.25.25 0 0 0-.141.443v.001l2.91 2.42a.75.75 0 0 1 .248.763l-.942 3.676a.217.217 0 0 0 .004.14c.015.039.045.08.09.112.089.064.188.07.28.012l3.2-2.02a.75.75 0 0 1 .801 0l3.206 2.024a.246.246 0 0 0 .367-.277v-.001l-.94-3.666a.75.75 0 0 1 .247-.763l2.912-2.42a.25.25 0 0 0-.141-.445l-3.778-.24a.75.75 0 0 1-.65-.47l-1.4-3.52a.77.77 0 0 1-.025-.073zm1.483-.321a.749.749 0 0 0-.046-.165c-.589-1.455-2.669-1.477-3.252.005l-.001.002-1.223 3.076-3.307.21H3.86c-1.574.105-2.222 2.081-1 3.095 0 0 .001 0 0 0l2.546 2.116-.822 3.209c-.405 1.542 1.305 2.747 2.626 1.912l2.8-1.767 2.797 1.765c1.348.866 3.01-.385 2.63-1.904l-.823-3.215 2.544-2.115c1.223-1.014.576-2.991-.998-3.096l-3.309-.21-1.16-2.918z" fill="#000"/></svg>
